**kern	**kern	**dynam
*part1	*part1	*part1
*staff2	*staff1	*
*I"Piano	*	*
*clefF4	*clefG2	*
*k[f#c#g#d#a#]	*k[f#c#g#d#a#]	*
=1	=1	=1
4FF#	8eL 8f# 8cc#	.
.	8A#	.
4C#	8e 8f# 8b	.
.	8B	.
4F#	8e 8f# 8a#	.
.	8c#J	.
=	=	=
4FF#	8eL 8f# 8cc#	.
.	8A#	.
4C#	8e 8f# 8b	.
.	8B	.
4F#	8e 8f# 8a#	.
.	8c#J	.
=	=	=
4BBB	8dd#L 8bb	.
.	8b	.
4FF#	8b 8ff#	.
.	8f#	.
4BB	8f# 8dd#	.
.	8d#J	.
=	=	=
4BBB	8dd#L 8bb	.
.	8b	.
4FF#	8b 8ff#	.
.	8f#	.
4BB	8f# 8dd#	.
.	8d#J	.
=	=	=
4EE	8eeL 8bb	.
.	8b	.
4BB	8b 8ggn	.
.	8gn	.
4E	8g 8ee	.
.	8eJ	.
=	=	=
4EE	8bL 8ggn	.
.	8gn	.
4BB	8g 8ee	.
.	8e	.
4E	8e 8b	.
.	8BJ	.
=	=	=
*	*^	*
4E	2.cc#	8cc#L	pp
.	.	8a#	.
4F#	.	8f#	.
.	.	8c#	.
4A#	.	8a#	.
.	.	8f#J	.
*	*v	*v	*
=	=	=
*-	*-	*-
!!!system-decoration: {(s1,s2)}
